;FLAVOR:Marlin
;TIME:5406
;Filament used: 10.0823m
;Layer height: 0.3
;MINX:112.917
;MINY:64.05
;MINZ:0.3
;MAXX:180.317
;MAXY:195.95
;MAXZ:8.5
;Generated with Cura_SteamEngine 4.11.0
M140 S60
M105
M190 S60
M104 S200
M105
M109 S200
M82 ;absolute extrusion mode
M201 X500.00 Y500.00 Z100.00 E5000.00 ;Setup machine max acceleration
M203 X500.00 Y500.00 Z10.00 E50.00 ;Setup machine max feedrate
M204 P500.00 R1000.00 T500.00 ;Setup Print/Retract/Travel acceleration
M205 X8.00 Y8.00 Z0.40 E5.00 ;Setup Jerk
M220 S100 ;Reset Feedrate
M221 S100 ;Reset Flowrate

G28 ;Home

G92 E0 ;Reset Extruder
G1 Z2.0 F3000 ;Move Z Axis up
G1 X10.1 Y20 Z0.28 F5000.0 ;Move to start position
G1 X10.1 Y200.0 Z0.28 F1500.0 E15 ;Draw the first line
G1 X10.4 Y200.0 Z0.28 F5000.0 ;Move to side a little
G1 X10.4 Y20 Z0.28 F1500.0 E30 ;Draw the second line
G92 E0 ;Reset Extruder
G1 Z2.0 F3000 ;Move Z Axis up

G92 E0
G92 E0
G1 F3000 E-3
;LAYER_COUNT:25
;LAYER:0
M107
G1 F600 Z1.3
G0 F3600 X113.3 Y65.759 Z1.3
;TYPE:SKIRT
G1 F600 Z0.3
G1 F3000 E0
G1 X113.571 Y65.332 E0.02523
G1 X113.906 Y64.954 E0.05043
G1 X114.297 Y64.633 E0.07567
G1 X114.734 Y64.378 E0.10091
G1 X115.205 Y64.194 E0.12614
G1 X115.699 Y64.088 E0.15135
G1 X116.357 Y64.051 E0.18423
G1 X176.456 Y64.05 E3.18258
G1 X177.154 Y64.06 E3.2174
G1 X177.657 Y64.107 E3.24261
G1 X178.147 Y64.233 E3.26785
G1 X178.611 Y64.435 E3.2931
G1 X179.037 Y64.707 E3.31831
G1 X179.415 Y65.042 E3.34351
G1 X179.735 Y65.433 E3.36872
G1 X179.99 Y65.87 E3.39396
G1 X180.173 Y66.341 E3.41917
G1 X180.28 Y66.835 E3.44439
G1 X180.316 Y67.49 E3.47712
G1 X180.317 Y192.054 E9.69164
G1 X180.308 Y192.781 E9.72791
G1 X180.262 Y193.284 E9.75311
G1 X180.137 Y193.774 E9.77834
G1 X179.936 Y194.238 E9.80357
G1 X179.665 Y194.665 E9.8288
G1 X179.33 Y195.044 E9.85404
G1 X178.94 Y195.365 E9.87924
G1 X178.504 Y195.621 E9.90446
G1 X178.033 Y195.804 E9.92967
G1 X177.539 Y195.912 E9.9549
G1 X176.877 Y195.949 E9.98798
G1 X116.783 Y195.95 E12.98608
G1 X116.085 Y195.941 E13.0209
G1 X115.581 Y195.894 E13.04616
G1 X115.091 Y195.769 E13.07139
G1 X114.627 Y195.568 E13.09661
G1 X114.201 Y195.297 E13.1218
G1 X113.822 Y194.962 E13.14704
G1 X113.501 Y194.571 E13.17228
G1 X113.246 Y194.135 E13.19748
G1 X113.062 Y193.664 E13.22271
G1 X112.955 Y193.17 E13.24792
G1 X112.918 Y192.494 E13.2817
G1 X112.917 Y67.881 E19.49867
G1 X112.926 Y67.216 E19.53185
G1 X112.973 Y66.712 E19.5571
G1 X113.099 Y66.223 E19.58229
G1 X113.3 Y65.759 E19.60752
G1 F3000 E16.60752
G1 F600 Z1.3
;MESH:2040_sync_protoboard_mount.stl
G0 F3600 X123.9 Y101.253 Z1.3
;TYPE:WALL-INNER
G1 F600 Z0.3
G1 F3000 E19.60752
G1 X124.45 Y101.144 E19.6355
G1 X124.886 Y100.915 E19.66007
G1 X125.286 Y100.531 E19.68773
G1 X125.532 Y100.104 E19.71231
G1 X125.666 Y99.557 E19.74041
G1 X125.629 Y98.998 E19.76836
G1 X125.424 Y98.473 E19.79648
G1 X125.07 Y98.031 E19.82473
G1 X124.603 Y97.72 E19.85272
G1 X124.144 Y97.577 E19.87671
G1 X123.802 Y97.547 E19.89384
G1 X123.256 Y97.631 E19.9214
G1 X122.758 Y97.878 E19.94913
G1 X122.397 Y98.21 E19.9736
G1 X122.135 Y98.621 E19.99792
G1 X121.99 Y99.083 E20.02207
G1 X121.979 Y99.644 E20.05007
G1 X122.137 Y100.185 E20.07819
G1 X122.402 Y100.596 E20.10258
G1 X122.818 Y100.962 E20.13023
G1 X123.337 Y101.191 E20.15853
G1 X123.9 Y101.253 E20.18679
G0 F3600 X123.883 Y100.849
;TYPE:WALL-OUTER
G1 F3000 X124.315 Y100.763 E20.20876
G1 X124.65 Y100.587 E20.22764
G1 X124.968 Y100.282 E20.24962
G1 X125.157 Y99.954 E20.26851
G1 X125.263 Y99.522 E20.2907
G1 X125.234 Y99.086 E20.3125
G1 X125.074 Y98.675 E20.33451
G1 X124.797 Y98.33 E20.35658
G1 X124.429 Y98.085 E20.37864
G1 X124.066 Y97.972 E20.3976
G1 X123.815 Y97.95 E20.41017
G1 X123.378 Y98.017 E20.43223
G1 X122.987 Y98.211 E20.45401
G1 X122.706 Y98.469 E20.47304
G1 X122.501 Y98.791 E20.49208
G1 X122.389 Y99.148 E20.51075
G1 X122.38 Y99.591 E20.53286
G1 X122.505 Y100.017 E20.55501
G1 X122.708 Y100.333 E20.57374
G1 X123.036 Y100.621 E20.59552
G1 X123.442 Y100.8 E20.61766
G1 X123.883 Y100.849 E20.63979
G0 F3600 X123.901 Y101.288
G1 F3000 E17.63979
G1 F600 Z1.3
G0 F3600 X126.764 Y87.548 Z1.3
;TYPE:WALL-INNER
G1 F600 Z0.3
G1 F3000 E20.63979
G1 X127.31 Y87.349 E20.66879
G1 X127.793 Y87.009 E20.69826
G1 X128.168 Y86.56 E20.72744
G1 X128.387 Y86.113 E20.75227
G1 X128.512 Y85.547 E20.78119
G1 X128.487 Y84.96 E20.8105
G1 X128.346 Y84.484 E20.83527
G1 X128.107 Y84.05 E20.85999
G1 X127.717 Y83.626 E20.88873
G1 X127.307 Y83.351 E20.91336
G1 X126.846 Y83.173 E20.93802
G1 X126.269 Y83.097 E20.96705
G1 X125.772 Y83.152 E20.992
G1 X125.233 Y83.348 E21.02061
G1 X124.815 Y83.627 E21.04568
G1 X124.475 Y83.985 E21.07032
G1 X124.185 Y84.488 E21.09928
G1 X124.032 Y85.062 E21.12892
G1 X124.032 Y85.641 E21.15781
G1 X124.149 Y86.118 E21.18231
G1 X124.373 Y86.57 E21.20748
G1 X124.748 Y87.014 E21.23647
G1 X125.229 Y87.351 E21.26577
G1 X125.776 Y87.548 E21.29478
G1 X126.269 Y87.602 E21.31952
G1 X126.764 Y87.548 E21.34436
G0 F3600 X126.672 Y87.156
;TYPE:WALL-OUTER
G1 F3000 X127.123 Y86.991 E21.36832
G1 X127.52 Y86.712 E21.39253
G1 X127.83 Y86.341 E21.41665
G1 X128.007 Y85.98 E21.43671
G1 X128.11 Y85.512 E21.46062
G1 X128.089 Y85.026 E21.48489
G1 X127.975 Y84.639 E21.50502
G1 X127.78 Y84.285 E21.52518
G1 X127.455 Y83.932 E21.54912
G1 X127.121 Y83.708 E21.56918
G1 X126.746 Y83.563 E21.58924
G1 X126.265 Y83.5 E21.61344
G1 X125.863 Y83.544 E21.63362
G1 X125.415 Y83.707 E21.6574
G1 X125.074 Y83.935 E21.67787
G1 X124.798 Y84.226 E21.69788
G1 X124.558 Y84.642 E21.72184
G1 X124.432 Y85.114 E21.74621
G1 X124.432 Y85.593 E21.77011
G1 X124.527 Y85.98 E21.78999
G1 X124.71 Y86.349 E21.81054
G1 X125.02 Y86.716 E21.8345
G1 X125.415 Y86.993 E21.85857
G1 X125.867 Y87.156 E21.88255
G1 X126.269 Y87.2 E21.90272
G1 X126.672 Y87.156 E21.92295
G0 F3600 X126.772 Y87.584
G1 F3000 E18.92295
G1 F600 Z1.3
G0 F3600 X137.035 Y77.925 Z1.3
;TYPE:WALL-INNER
G1 F600 Z0.3
G1 F3000 E21.92295
G1 X137.718 Y77.758 E21.95803
G1 X138.341 Y77.449 E21.99272
G1 X138.882 Y77.015 E22.02732
G1 X139.321 Y76.468 E22.06231
G1 X139.626 Y75.845 E22.09692
G1 X139.792 Y75.163 E22.13194
G1 X139.807 Y74.465 E22.16677
G1 X139.67 Y73.781 E22.20157
G1 X139.388 Y73.145 E22.23628
G1 X138.974 Y72.583 E22.27111
G1 X138.451 Y72.124 E22.30582
G1 X137.838 Y71.791 E22.34063
G1 X137.173 Y71.597 E22.37519
G1 X136.608 Y71.548 E22.40348
G1 X135.919 Y71.625 E22.43807
G1 X135.26 Y71.85 E22.47281
G1 X134.663 Y72.212 E22.50764
G1 X134.163 Y72.696 E22.54236
G1 X133.776 Y73.271 E22.57694
G1 X133.523 Y73.925 E22.61192
G1 X133.418 Y74.611 E22.64655
G1 X133.464 Y75.306 E22.6813
G1 X133.659 Y75.98 E22.7163
G1 X133.997 Y76.591 E22.75114
G1 X134.457 Y77.114 E22.78589
G1 X135.019 Y77.526 E22.82065
G1 X135.659 Y77.806 E22.8555
G1 X136.342 Y77.94 E22.89023
G1 X137.035 Y77.925 E22.92481
G0 F3600 X136.983 Y77.526
;TYPE:WALL-OUTER
G1 F3000 X137.58 Y77.38 E22.95547
G1 X138.124 Y77.11 E22.98577
G1 X138.597 Y76.73 E23.01604
G1 X138.981 Y76.252 E23.04663
G1 X139.248 Y75.708 E23.07687
G1 X139.393 Y75.111 E23.10752
G1 X139.406 Y74.501 E23.13796
G1 X139.286 Y73.903 E23.16838
G1 X139.04 Y73.347 E23.19872
G1 X138.678 Y72.855 E23.22919
G1 X138.221 Y72.454 E23.25952
G1 X137.685 Y72.163 E23.28995
G1 X137.099 Y71.992 E23.32041
G1 X136.613 Y71.95 E23.34474
G1 X136.007 Y72.018 E23.37517
G1 X135.43 Y72.215 E23.40559
G1 X134.909 Y72.531 E23.43599
G1 X134.471 Y72.954 E23.46636
G1 X134.133 Y73.457 E23.4966
G1 X133.912 Y74.029 E23.52719
G1 X133.82 Y74.628 E23.55743
G1 X133.86 Y75.236 E23.58783
G1 X134.031 Y75.826 E23.61847
G1 X134.326 Y76.359 E23.64886
G1 X134.729 Y76.817 E23.6793
G1 X135.22 Y77.177 E23.70968
G1 X135.779 Y77.422 E23.74013
G1 X136.377 Y77.539 E23.77053
G1 X136.983 Y77.526 E23.80077
G0 F3600 X137.04 Y77.962
G1 F3000 E20.80077
G1 F600 Z1.3
G0 F3600 X156.342 Y77.94 Z1.3
;TYPE:WALL-INNER
G1 F600 Z0.3
G1 F3000 E23.80077
G1 X157.035 Y77.925 E23.83535
G1 X157.718 Y77.758 E23.87043
G1 X158.341 Y77.449 E23.90512
G1 X158.882 Y77.015 E23.93972
G1 X159.321 Y76.468 E23.97472
G1 X159.626 Y75.845 E24.00932
G1 X159.792 Y75.163 E24.04434
G1 X159.807 Y74.465 E24.07917
G1 X159.67 Y73.781 E24.11397
G1 X159.388 Y73.145 E24.14868
G1 X158.974 Y72.583 E24.18351
G1 X158.451 Y72.124 E24.21822
G1 X157.838 Y71.791 E24.25303
G1 X157.173 Y71.597 E24.28759
G1 X156.608 Y71.548 E24.31588
G1 X155.919 Y71.625 E24.35047
G1 X155.26 Y71.85 E24.38521
G1 X154.663 Y72.212 E24.42004
G1 X154.163 Y72.696 E24.45476
G1 X153.776 Y73.271 E24.48934
G1 X153.523 Y73.925 E24.52433
G1 X153.418 Y74.611 E24.55895
G1 X153.464 Y75.306 E24.5937
G1 X153.659 Y75.98 E24.6287
G1 X153.997 Y76.591 E24.66354
G1 X154.457 Y77.114 E24.69829
G1 X155.019 Y77.526 E24.73305
G1 X155.659 Y77.806 E24.76791
G1 X156.342 Y77.94 E24.80263
G0 F3600 X156.377 Y77.539
;TYPE:WALL-OUTER
G1 F3000 X156.983 Y77.526 E24.83287
G1 X157.58 Y77.38 E24.86353
G1 X158.124 Y77.11 E24.89383
G1 X158.597 Y76.73 E24.9241
G1 X158.981 Y76.252 E24.95469
G1 X159.248 Y75.708 E24.98493
G1 X159.393 Y75.111 E25.01558
G1 X159.406 Y74.501 E25.04602
G1 X159.286 Y73.903 E25.07644
G1 X159.04 Y73.347 E25.10678
G1 X158.678 Y72.855 E25.13725
G1 X158.221 Y72.454 E25.16758
G1 X157.685 Y72.163 E25.19801
G1 X157.099 Y71.992 E25.22847
G1 X156.613 Y71.95 E25.2528
G1 X156.007 Y72.018 E25.28323
G1 X155.43 Y72.215 E25.31365
G1 X154.909 Y72.531 E25.34405
G1 X154.471 Y72.954 E25.37442
G1 X154.133 Y73.457 E25.40466
G1 X153.912 Y74.029 E25.43525
G1 X153.82 Y74.628 E25.46549
G1 X153.86 Y75.236 E25.49589
G1 X154.031 Y75.826 E25.52653
G1 X154.326 Y76.359 E25.55692
G1 X154.729 Y76.817 E25.58736
G1 X155.22 Y77.177 E25.61774
G1 X155.779 Y77.422 E25.64819
G1 X156.377 Y77.539 E25.67859
G0 F3600 X156.34 Y77.977
G1 F3000 E22.67859
G1 F600 Z1.3
G0 F3600 X165.929 Y87.351 Z1.3
;TYPE:WALL-INNER
G1 F600 Z0.3
G1 F3000 E25.67859
G1 X166.476 Y87.548 E25.70759
G1 X166.969 Y87.602 E25.73233
G1 X167.464 Y87.548 E25.75718
G1 X168.01 Y87.349 E25.78617
G1 X168.493 Y87.009 E25.81564
G1 X168.868 Y86.56 E25.84482
G1 X169.087 Y86.113 E25.86966
G1 X169.212 Y85.547 E25.89858
G1 X169.187 Y84.96 E25.92789
G1 X169.046 Y84.484 E25.95266
G1 X168.807 Y84.05 E25.97737
G1 X168.417 Y83.626 E26.00611
G1 X168.007 Y83.351 E26.03074
G1 X167.546 Y83.173 E26.0554
G1 X166.969 Y83.097 E26.08443
G1 X166.472 Y83.152 E26.10938
G1 X165.933 Y83.348 E26.13799
G1 X165.515 Y83.627 E26.16307
G1 X165.175 Y83.985 E26.1877
G1 X164.885 Y84.488 E26.21667
G1 X164.732 Y85.062 E26.2463
G1 X164.732 Y85.641 E26.27519
G1 X164.849 Y86.118 E26.29969
G1 X165.073 Y86.57 E26.32486
G1 X165.448 Y87.014 E26.35386
G1 X165.929 Y87.351 E26.38316
G0 F3600 X166.115 Y86.993
;TYPE:WALL-OUTER
G1 F3000 X166.567 Y87.156 E26.40713
G1 X166.969 Y87.2 E26.4273
G1 X167.372 Y87.156 E26.44753
G1 X167.823 Y86.991 E26.47149
G1 X168.22 Y86.712 E26.4957
G1 X168.53 Y86.341 E26.51982
G1 X168.707 Y85.98 E26.53988
G1 X168.81 Y85.512 E26.56378
G1 X168.789 Y85.026 E26.58805
G1 X168.675 Y84.639 E26.60818
G1 X168.48 Y84.285 E26.62834
G1 X168.155 Y83.932 E26.65228
G1 X167.821 Y83.708 E26.67235
G1 X167.446 Y83.563 E26.6924
G1 X166.965 Y83.5 E26.71661
G1 X166.563 Y83.544 E26.73678
G1 X166.115 Y83.707 E26.76057
G1 X165.774 Y83.935 E26.78103
G1 X165.498 Y84.226 E26.80104
G1 X165.258 Y84.642 E26.825
G1 X165.132 Y85.114 E26.84937
G1 X165.132 Y85.593 E26.87327
G1 X165.227 Y85.98 E26.89315
G1 X165.41 Y86.349 E26.9137
G1 X165.72 Y86.716 E26.93767
G1 X166.115 Y86.993 E26.96174
G0 F3600 X165.913 Y87.383
G1 F3000 E23.96174
G1 F600 Z1.3
G0 F3600 X168.937 Y101.191 Z1.3
;TYPE:WALL-INNER
G1 F600 Z0.3
G1 F3000 E26.96174
G1 X169.5 Y101.253 E26.99
G1 X170.05 Y101.144 E27.01797
G1 X170.486 Y100.915 E27.04254
G1 X170.886 Y100.531 E27.0702
G1 X171.132 Y100.104 E27.09479
G1 X171.266 Y99.557 E27.12289
G1 X171.229 Y98.998 E27.15083
G1 X171.024 Y98.473 E27.17895
G1 X170.67 Y98.031 E27.20721
G1 X170.203 Y97.72 E27.2352
G1 X169.744 Y97.577 E27.25918
G1 X169.402 Y97.547 E27.27631
G1 X168.856 Y97.631 E27.30387
G1 X168.358 Y97.878 E27.3316
G1 X167.997 Y98.21 E27.35607
G1 X167.735 Y98.621 E27.38039
G1 X167.59 Y99.083 E27.40455
G1 X167.579 Y99.644 E27.43254
G1 X167.737 Y100.185 E27.46066
G1 X168.002 Y100.596 E27.48506
G1 X168.418 Y100.962 E27.5127
G1 X168.937 Y101.191 E27.541
G0 F3600 X169.042 Y100.8
;TYPE:WALL-OUTER
G1 F3000 X169.483 Y100.849 E27.56314
G1 X169.915 Y100.763 E27.58512
G1 X170.25 Y100.587 E27.60399
G1 X170.568 Y100.282 E27.62598
G1 X170.757 Y99.954 E27.64486
G1 X170.863 Y99.522 E27.66706
G1 X170.834 Y99.086 E27.68886
G1 X170.674 Y98.675 E27.71086
G1 X170.397 Y98.33 E27.73293
G1 X170.029 Y98.085 E27.75499
G1 X169.666 Y97.972 E27.77396
G1 X169.415 Y97.95 E27.78653
G1 X168.978 Y98.017 E27.80858
G1 X168.587 Y98.211 E27.83036
G1 X168.306 Y98.469 E27.84939
G1 X168.101 Y98.791 E27.86844
G1 X167.989 Y99.148 E27.8871
G1 X167.98 Y99.591 E27.90921
G1 X168.105 Y100.017 E27.93136
G1 X168.308 Y100.333 E27.9501
G1 X168.636 Y100.621 E27.97187
G1 X169.042 Y100.8 E27.99401
G0 F3600 X168.928 Y101.224
G1 F3000 E24.99401
G1 F600 Z1.3
G0 F3600 X168.937 Y162.391 Z1.3
;TYPE:WALL-INNER
G1 F600 Z0.3
G1 F3000 E27.99401
G1 X169.5 Y162.453 E28.02227
G1 X170.05 Y162.344 E28.05024
G1 X170.486 Y162.115 E28.07481
G1 X170.886 Y161.731 E28.10247
G1 X171.132 Y161.304 E28.12706
G1 X171.266 Y160.757 E28.15516
G1 X171.229 Y160.198 E28.18311
G1 X171.024 Y159.673 E28.21122
G1 X170.67 Y159.231 E28.23948
G1 X170.203 Y158.92 E28.26747
G1 X169.744 Y158.777 E28.29145
G1 X169.402 Y158.747 E28.30858
G1 X168.856 Y158.831 E28.33614
G1 X168.358 Y159.078 E28.36388
G1 X167.997 Y159.41 E28.38835
G1 X167.735 Y159.821 E28.41266
G1 X167.59 Y160.283 E28.43682
G1 X167.579 Y160.844 E28.46481
G1 X167.737 Y161.385 E28.49293
G1 X168.002 Y161.796 E28.51733
G1 X168.418 Y162.162 E28.54497
G1 X168.937 Y162.391 E28.57327
G0 F3600 X169.042 Y162
;TYPE:WALL-OUTER
G1 F3000 X169.483 Y162.049 E28.59541
G1 X169.915 Y161.963 E28.61739
G1 X170.25 Y161.787 E28.63627
G1 X170.568 Y161.482 E28.65825
G1 X170.757 Y161.154 E28.67714
G1 X170.863 Y160.722 E28.69933
G1 X170.834 Y160.286 E28.72113
G1 X170.674 Y159.875 E28.74313
G1 X170.397 Y159.53 E28.7652
G1 X170.029 Y159.285 E28.78726
G1 X169.666 Y159.172 E28.80623
G1 X169.415 Y159.15 E28.8188
G1 X168.978 Y159.217 E28.84086
G1 X168.587 Y159.411 E28.86263
G1 X168.306 Y159.669 E28.88166
G1 X168.101 Y159.991 E28.90071
G1 X167.989 Y160.348 E28.91937
G1 X167.98 Y160.791 E28.94148
G1 X168.105 Y161.217 E28.96363
G1 X168.308 Y161.533 E28.98237
G1 X168.636 Y161.821 E29.00414
G1 X169.042 Y162 E29.02628
G0 F3600 X168.928 Y162.424
G1 F3000 E26.02628
G1 F600 Z1.3
G0 F3600 X165.929 Y176.651 Z1.3
;TYPE:WALL-INNER
G1 F600 Z0.3
G1 F3000 E29.02628
G1 X166.476 Y176.848 E29.05529
G1 X166.969 Y176.902 E29.08003
G1 X167.464 Y176.848 E29.10487
G1 X168.01 Y176.649 E29.13386
G1 X168.493 Y176.309 E29.16333
G1 X168.868 Y175.86 E29.19252
G1 X169.087 Y175.413 E29.21735
G1 X169.212 Y174.847 E29.24627
G1 X169.187 Y174.26 E29.27558
G1 X169.046 Y173.784 E29.30035
G1 X168.807 Y173.35 E29.32507
G1 X168.417 Y172.926 E29.35381
G1 X168.007 Y172.651 E29.37844
G1 X167.546 Y172.473 E29.40309
G1 X166.969 Y172.397 E29.43213
G1 X166.472 Y172.452 E29.45708
G1 X165.933 Y172.648 E29.48569
G1 X165.515 Y172.927 E29.51076
G1 X165.175 Y173.285 E29.5354
G1 X164.885 Y173.788 E29.56436
G1 X164.732 Y174.362 E29.594
G1 X164.732 Y174.941 E29.62289
G1 X164.849 Y175.418 E29.64739
G1 X165.073 Y175.87 E29.67256
G1 X165.448 Y176.314 E29.70155
G1 X165.929 Y176.651 E29.73085
G0 F3600 X166.115 Y176.293
;TYPE:WALL-OUTER
G1 F3000 X166.567 Y176.456 E29.75482
G1 X166.969 Y176.5 E29.775
G1 X167.372 Y176.456 E29.79522
G1 X167.823 Y176.291 E29.81918
G1 X168.22 Y176.012 E29.84339
G1 X168.53 Y175.641 E29.86751
G1 X168.707 Y175.28 E29.88757
