;FLAVOR:Marlin
;TIME:9358
;Filament used: 12.7928m
;Layer height: 0.2
;MINX:73.8
;MINY:96.3
;MINZ:0.3
;MAXX:206.2
;MAXY:163.7
;MAXZ:10.9
;Generated with Cura_SteamEngine 4.11.0
M140 S60
M105
M190 S60
M104 S200
M105
M109 S200
M82 ;absolute extrusion mode
M201 X500.00 Y500.00 Z100.00 E5000.00 ;Setup machine max acceleration
M203 X500.00 Y500.00 Z10.00 E50.00 ;Setup machine max feedrate
M204 P500.00 R1000.00 T500.00 ;Setup Print/Retract/Travel acceleration
M205 X8.00 Y8.00 Z0.40 E5.00 ;Setup Jerk
M220 S100 ;Reset Feedrate
M221 S100 ;Reset Flowrate

G28 ;Home

G92 E0 ;Reset Extruder
G1 Z2.0 F3000 ;Move Z Axis up
G1 X10.1 Y20 Z0.28 F5000.0 ;Move to start position
G1 X10.1 Y200.0 Z0.28 F1500.0 E15 ;Draw the first line
G1 X10.4 Y200.0 Z0.28 F5000.0 ;Move to side a little
G1 X10.4 Y20 Z0.28 F1500.0 E30 ;Draw the second line
G92 E0 ;Reset Extruder
G1 Z2.0 F3000 ;Move Z Axis up

G92 E0
G92 E0
G1 F3000 E-3
;LAYER_COUNT:50
;LAYER:0
M107
G1 F600 Z1.3
G0 F3600 X75.18 Y96.883 Z1.3
;TYPE:SKIRT
G1 F600 Z0.3
G1 F3000 E0
G1 X75.617 Y96.628 E0.02524
G1 X76.088 Y96.444 E0.05047
G1 X76.582 Y96.338 E0.07568
G1 X77.24 Y96.301 E0.10856
G1 X202.339 Y96.3 E6.34977
G1 X203.037 Y96.31 E6.3846
G1 X203.54 Y96.357 E6.4098
G1 X204.03 Y96.483 E6.43504
G1 X204.494 Y96.685 E6.46029
G1 X204.92 Y96.957 E6.48551
G1 X205.298 Y97.292 E6.51071
G1 X205.618 Y97.683 E6.53591
G1 X205.873 Y98.12 E6.56116
G1 X206.056 Y98.591 E6.58636
G1 X206.163 Y99.085 E6.61158
G1 X206.199 Y99.74 E6.64431
G1 X206.2 Y159.804 E9.64091
G1 X206.191 Y160.531 E9.67719
G1 X206.145 Y161.034 E9.70239
G1 X206.02 Y161.524 E9.72762
G1 X205.819 Y161.988 E9.75284
G1 X205.548 Y162.415 E9.77808
G1 X205.213 Y162.794 E9.80331
G1 X204.823 Y163.115 E9.82851
G1 X204.387 Y163.371 E9.85374
G1 X203.916 Y163.554 E9.87895
G1 X203.422 Y163.662 E9.90417
G1 X202.76 Y163.699 E9.93725
G1 X77.666 Y163.7 E16.17822
G1 X76.968 Y163.691 E16.21304
G1 X76.464 Y163.644 E16.2383
G1 X75.974 Y163.519 E16.26353
G1 X75.51 Y163.318 E16.28875
G1 X75.084 Y163.047 E16.31394
G1 X74.705 Y162.712 E16.33918
G1 X74.384 Y162.321 E16.36442
G1 X74.129 Y161.885 E16.38962
G1 X73.945 Y161.414 E16.41485
G1 X73.838 Y160.92 E16.44006
G1 X73.801 Y160.244 E16.47384
G1 X73.8 Y100.131 E19.47289
G1 X73.809 Y99.466 E19.50607
G1 X73.856 Y98.962 E19.53132
G1 X73.982 Y98.473 E19.55652
G1 X74.183 Y98.009 E19.58174
G1 X74.454 Y97.582 E19.60697
G1 X74.789 Y97.204 E19.63217
G1 X75.18 Y96.883 E19.65741
G1 F3000 E16.65741
G1 F600 Z1.3
;MESH:sync_protoboard_mount2.stl
G0 F3600 X97.216 Y152.17 Z1.3
;TYPE:WALL-INNER
G1 F600 Z0.3
G1 F3000 E19.65741
G1 X97.753 Y151.599 E19.69652
G1 X98.082 Y150.879 E19.73601
G1 X98.16 Y150.103 E19.77492
G1 X98.015 Y149.418 E19.80985
G1 X97.681 Y148.802 E19.84481
G1 X97.195 Y148.316 E19.8791
G1 X96.529 Y147.96 E19.91678
G1 X95.725 Y147.835 E19.95737
G1 X94.995 Y147.956 E19.99429
G1 X94.35 Y148.28 E20.0303
G1 X93.795 Y148.834 E20.06942
G1 X93.469 Y149.462 E20.10472
G1 X93.336 Y150.165 E20.14042
G1 X93.446 Y150.992 E20.18204
G1 X93.844 Y151.739 E20.22427
G1 X94.456 Y152.29 E20.26535
G1 X95.134 Y152.586 E20.30226
G1 X95.907 Y152.66 E20.341
G1 X96.591 Y152.513 E20.37591
G1 X97.216 Y152.17 E20.41148
G0 F3600 X96.968 Y151.85
G1 F3000 X97.371 Y151.421 E20.44084
G1 X97.417 Y151.373 E20.44416
G1 X97.691 Y150.773 E20.47707
G1 X97.756 Y150.125 E20.50956
G1 X97.636 Y149.558 E20.53847
G1 X97.357 Y149.044 E20.56765
G1 X96.954 Y148.641 E20.59608
G1 X96.4 Y148.345 E20.62742
G1 X95.727 Y148.24 E20.6614
G1 X95.12 Y148.341 E20.6921
G1 X94.587 Y148.609 E20.72187
G1 X94.121 Y149.073 E20.75467
G1 X93.851 Y149.594 E20.78395
G1 X93.741 Y150.176 E20.8135
G1 X93.833 Y150.868 E20.84833
G1 X94.164 Y151.489 E20.88344
G1 X94.675 Y151.949 E20.91774
G1 X95.236 Y152.194 E20.94828
G1 X95.883 Y152.256 E20.98071
G1 X96.45 Y152.134 E21.00964
G1 X96.968 Y151.85 E21.03911
G0 F3600 X96.72 Y151.53
G1 F3000 X97.081 Y151.147 E21.06537
G1 X97.3 Y150.667 E21.09169
G1 X97.352 Y150.147 E21.11777
G1 X97.257 Y149.698 E21.14066
G1 X97.033 Y149.286 E21.16406
G1 X96.713 Y148.966 E21.18664
G1 X96.271 Y148.73 E21.21163
G1 X95.729 Y148.645 E21.23901
G1 X95.246 Y148.726 E21.26344
G1 X94.824 Y148.938 E21.287
G1 X94.447 Y149.313 E21.31353
G1 X94.233 Y149.726 E21.33674
G1 X94.146 Y150.187 E21.36014
G1 X94.22 Y150.744 E21.38817
G1 X94.484 Y151.239 E21.41616
G1 X94.894 Y151.608 E21.44368
G1 X95.338 Y151.802 E21.46785
G1 X95.859 Y151.852 E21.49397
G1 X96.309 Y151.755 E21.51693
G1 X96.72 Y151.53 E21.54031
G0 F3600 X96.473 Y151.209
;TYPE:WALL-OUTER
G1 F3000 X96.745 Y150.921 E21.56007
G1 X96.909 Y150.561 E21.57981
G1 X96.948 Y150.169 E21.59946
G1 X96.878 Y149.838 E21.61634
G1 X96.709 Y149.528 E21.63396
G1 X96.472 Y149.291 E21.65068
G1 X96.142 Y149.115 E21.66934
G1 X95.731 Y149.05 E21.6901
G1 X95.372 Y149.11 E21.70826
G1 X95.061 Y149.267 E21.72564
G1 X94.773 Y149.553 E21.74589
G1 X94.615 Y149.858 E21.76302
G1 X94.551 Y150.198 E21.78028
G1 X94.607 Y150.62 E21.80152
G1 X94.804 Y150.989 E21.82239
G1 X95.113 Y151.267 E21.84313
G1 X95.44 Y151.41 E21.86093
G1 X95.835 Y151.448 E21.88073
G1 X96.168 Y151.376 E21.89773
G1 X96.473 Y151.209 E21.91508
G0 F3600 X96.741 Y151.557
G1 F3000 E18.91508
G1 F600 Z1.3
G0 F3600 X85.994 Y143.612 Z1.3
;TYPE:WALL-INNER
G1 F600 Z0.3
G1 F3000 E21.91508
G1 X86.734 Y143.203 E21.95726
G1 X87.328 Y142.693 E21.99632
G1 X87.785 Y142.116 E22.03304
G1 X88.164 Y141.349 E22.07572
G1 X88.354 Y140.635 E22.11258
G1 X88.403 Y139.805 E22.15407
G1 X88.291 Y139.051 E22.1921
G1 X88.013 Y138.291 E22.23247
G1 X87.613 Y137.642 E22.2705
G1 X87.043 Y137.035 E22.31205
G1 X86.419 Y136.597 E22.35008
G1 X85.637 Y136.26 E22.39256
G1 X84.791 Y136.108 E22.43545
G1 X84.457 Y136.097 E22.45212
G1 X83.661 Y136.184 E22.49207
G1 X82.914 Y136.431 E22.53132
G1 X82.256 Y136.804 E22.56906
G1 X81.653 Y137.327 E22.60888
G1 X81.22 Y137.878 E22.64384
G1 X80.875 Y138.543 E22.68122
G1 X80.649 Y139.344 E22.72274
G1 X80.594 Y140.083 E22.75971
G1 X80.712 Y140.963 E22.80401
G1 X80.967 Y141.667 E22.84136
G1 X81.437 Y142.429 E22.88603
G1 X82.066 Y143.059 E22.93044
G1 X82.789 Y143.513 E22.97304
G1 X83.593 Y143.802 E23.01566
G1 X84.48 Y143.906 E23.06022
G1 X85.19 Y143.845 E23.09577
G1 X85.994 Y143.612 E23.13753
G0 F3600 X85.84 Y143.24
G1 F3000 X86.505 Y142.873 E23.17542
G1 X87.038 Y142.415 E23.21048
G1 X87.445 Y141.901 E23.24319
G1 X87.788 Y141.208 E23.28177
G1 X87.957 Y140.571 E23.31465
G1 X88.001 Y139.823 E23.35203
G1 X87.901 Y139.15 E23.38598
G1 X87.651 Y138.466 E23.42231
G1 X87.294 Y137.886 E23.45629
G1 X86.78 Y137.339 E23.49374
G1 X86.223 Y136.948 E23.52769
G1 X85.521 Y136.646 E23.56581
G1 X84.749 Y136.507 E23.60495
G1 X84.472 Y136.498 E23.61878
G1 X83.746 Y136.577 E23.65521
G1 X83.077 Y136.798 E23.69036
G1 X82.488 Y137.132 E23.72414
G1 X81.944 Y137.604 E23.76007
G1 X81.558 Y138.096 E23.79127
G1 X81.249 Y138.691 E23.82472
G1 X81.045 Y139.414 E23.8622
G1 X80.996 Y140.071 E23.89507
G1 X81.103 Y140.867 E23.93514
G1 X81.329 Y141.492 E23.9683
G1 X81.753 Y142.179 E24.00857
G1 X82.317 Y142.744 E24.0484
G1 X82.965 Y143.151 E24.08658
G1 X83.685 Y143.41 E24.12475
G1 X84.486 Y143.504 E24.16499
G1 X85.116 Y143.45 E24.19654
G1 X85.84 Y143.24 E24.23414
G0 F3600 X85.686 Y142.868
G1 F3000 X86.276 Y142.543 E24.26775
G1 X86.748 Y142.137 E24.29881
G1 X87.105 Y141.686 E24.32751
G1 X87.412 Y141.067 E24.36198
G1 X87.56 Y140.508 E24.39083
G1 X87.599 Y139.841 E24.42416
G1 X87.511 Y139.249 E24.45402
G1 X87.289 Y138.641 E24.48631
G1 X86.975 Y138.13 E24.51624
G1 X86.517 Y137.643 E24.54959
G1 X86.027 Y137.299 E24.57946
G1 X85.405 Y137.032 E24.61323
G1 X84.707 Y136.906 E24.64861
G1 X84.487 Y136.899 E24.6596
G1 X83.831 Y136.97 E24.69252
G1 X83.24 Y137.165 E24.72356
G1 X82.72 Y137.46 E24.75339
G1 X82.235 Y137.881 E24.78543
G1 X81.896 Y138.313 E24.81283
G1 X81.623 Y138.839 E24.84239
G1 X81.441 Y139.484 E24.87583
G1 X81.398 Y140.059 E24.9046
G1 X81.494 Y140.771 E24.94044
G1 X81.691 Y141.317 E24.9694
G1 X82.069 Y141.929 E25.00529
G1 X82.568 Y142.429 E25.04053
G1 X83.141 Y142.789 E25.07429
G1 X83.777 Y143.018 E25.10801
G1 X84.492 Y143.102 E25.14393
G1 X85.042 Y143.055 E25.17147
G1 X85.686 Y142.868 E25.20493
G0 F3600 X85.532 Y142.496
;TYPE:WALL-OUTER
G1 F3000 X86.047 Y142.213 E25.23424
G1 X86.458 Y141.859 E25.26131
G1 X86.765 Y141.471 E25.28599
G1 X87.036 Y140.925 E25.3164
G1 X87.163 Y140.445 E25.34117
G1 X87.197 Y139.859 E25.37046
G1 X87.121 Y139.348 E25.39623
G1 X86.927 Y138.816 E25.42448
G1 X86.656 Y138.374 E25.45035
G1 X86.254 Y137.947 E25.47961
G1 X85.831 Y137.65 E25.50539
G1 X85.289 Y137.418 E25.53481
G1 X84.665 Y137.305 E25.56645
G1 X84.502 Y137.3 E25.57458
G1 X83.916 Y137.363 E25.60399
G1 X83.403 Y137.532 E25.63093
G1 X82.952 Y137.788 E25.6568
G1 X82.526 Y138.158 E25.68495
G1 X82.234 Y138.53 E25.70855
G1 X81.997 Y138.987 E25.73423
G1 X81.837 Y139.554 E25.76362
G1 X81.8 Y140.047 E25.78829
G1 X81.885 Y140.675 E25.81991
G1 X82.053 Y141.142 E25.84467
G1 X82.385 Y141.679 E25.87616
G1 X82.819 Y142.114 E25.90682
G1 X83.317 Y142.427 E25.93617
G1 X83.869 Y142.626 E25.96544
G1 X84.498 Y142.7 E25.99704
G1 X84.968 Y142.66 E26.02057
G1 X85.532 Y142.496 E26.04987
G0 F3600 X85.7 Y142.902
G1 F3000 E23.04987
G1 F600 Z1.3
G0 F3600 X86.059 Y123.584 Z1.3
;TYPE:WALL-INNER
G1 F600 Z0.3
G1 F3000 E26.04987
G1 X86.855 Y123.123 E26.09577
G1 X87.504 Y122.498 E26.14072
G1 X87.924 Y121.882 E26.17791
G1 X88.253 Y121.084 E26.22098
G1 X88.394 Y120.301 E26.26067
G1 X88.362 Y119.393 E26.306
G1 X88.114 Y118.51 E26.35176
G1 X87.719 Y117.788 E26.39281
G1 X87.195 Y117.175 E26.43305
G1 X86.622 Y116.718 E26.46961
G1 X85.866 Y116.339 E26.51181
G1 X85.823 Y116.329 E26.51401
G1 X85.034 Y116.131 E26.55459
G1 X84.509 Y116.1 E26.58083
G1 X84.475 Y116.097 E26.58253
G1 X83.667 Y116.184 E26.62308
G1 X82.972 Y116.406 E26.65948
G1 X82.315 Y116.762 E26.69676
G1 X81.727 Y117.248 E26.73482
G1 X81.172 Y117.953 E26.77958
G1 X80.804 Y118.731 E26.82252
G1 X80.615 Y119.582 E26.86601
G1 X80.61 Y120.349 E26.90427
G1 X80.78 Y121.197 E26.94742
G1 X81.085 Y121.9 E26.98565
G1 X81.55 Y122.559 E27.02589
G1 X82.101 Y123.082 E27.06379
G1 X82.811 Y123.522 E27.10547
G1 X83.567 Y123.796 E27.14558
G1 X84.477 Y123.906 E27.19132
G1 X85.223 Y123.841 E27.22867
G1 X86.059 Y123.584 E27.27231
G0 F3600 X85.898 Y123.215
G1 F3000 X86.612 Y122.801 E27.31349
G1 X87.197 Y122.238 E27.35399
G1 X87.57 Y121.691 E27.38702
G1 X87.867 Y120.971 E27.42588
G1 X87.993 Y120.272 E27.46131
G1 X87.964 Y119.455 E27.5021
G1 X87.741 Y118.662 E27.5432
G1 X87.388 Y118.016 E27.57993
G1 X86.916 Y117.464 E27.61616
G1 X86.405 Y117.057 E27.64875
G1 X85.726 Y116.716 E27.68666
G1 X85.683 Y116.706 E27.68886
G1 X84.973 Y116.528 E27.72538
G1 X84.518 Y116.501 E27.74812
G1 X84.484 Y116.498 E27.74982
G1 X83.75 Y116.577 E27.78665
G1 X83.13 Y116.776 E27.81914
G1 X82.54 Y117.095 E27.8526
G1 X82.015 Y117.529 E27.88659
G1 X81.514 Y118.165 E27.92698
G1 X81.185 Y118.861 E27.96539
G1 X81.015 Y119.627 E28.00453
G1 X81.01 Y120.311 E28.03866
G1 X81.164 Y121.077 E28.07764
G1 X81.436 Y121.703 E28.11169
G1 X81.854 Y122.296 E28.14789
G1 X82.347 Y122.764 E28.1818
G1 X82.986 Y123.16 E28.2193
G1 X83.66 Y123.404 E28.25507
G1 X84.484 Y123.504 E28.29648
G1 X85.146 Y123.446 E28.32963
G1 X85.898 Y123.215 E28.36888
G0 F3600 X85.737 Y122.846
G1 F3000 X86.369 Y122.479 E28.40534
G1 X86.89 Y121.978 E28.4414
G1 X87.216 Y121.5 E28.47027
G1 X87.481 Y120.858 E28.50492
G1 X87.592 Y120.243 E28.5361
G1 X87.566 Y119.517 E28.57234
G1 X87.368 Y118.814 E28.60878
G1 X87.057 Y118.244 E28.64117
G1 X86.637 Y117.753 E28.67341
G1 X86.188 Y117.396 E28.70203
G1 X85.586 Y117.093 E28.73565
G1 X84.912 Y116.925 E28.7703
G1 X84.493 Y116.899 E28.79125
G1 X83.833 Y116.97 E28.82437
G1 X83.288 Y117.145 E28.85292
G1 X82.765 Y117.428 E28.88259
G1 X82.303 Y117.81 E28.9125
G1 X81.856 Y118.377 E28.94852
G1 X81.566 Y118.991 E28.9824
G1 X81.415 Y119.672 E29.0172
G1 X81.41 Y120.273 E29.04718
G1 X81.548 Y120.956 E29.08195
G1 X81.787 Y121.506 E29.11186
G1 X82.158 Y122.033 E29.14402
G1 X82.593 Y122.446 E29.17394
G1 X83.161 Y122.798 E29.20728
G1 X83.753 Y123.012 E29.23869
G1 X84.491 Y123.102 E29.27578
G1 X85.069 Y123.051 E29.30473
G1 X85.737 Y122.846 E29.33959
G0 F3600 X85.576 Y122.477
;TYPE:WALL-OUTER
G1 F3000 X86.126 Y122.157 E29.37133
G1 X86.583 Y121.718 E29.40295
G1 X86.862 Y121.309 E29.42765
G1 X87.095 Y120.745 E29.45809
G1 X87.191 Y120.214 E29.48502
G1 X87.168 Y119.579 E29.51672
G1 X86.995 Y118.966 E29.54849
G1 X86.726 Y118.472 E29.57656
G1 X86.358 Y118.042 E29.60479
G1 X85.971 Y117.735 E29.62944
G1 X85.446 Y117.47 E29.65878
G1 X84.851 Y117.322 E29.68937
G1 X84.502 Y117.3 E29.70681
G1 X83.916 Y117.363 E29.73622
G1 X83.446 Y117.514 E29.76085
G1 X82.99 Y117.761 E29.78672
G1 X82.591 Y118.091 E29.81255
G1 X82.198 Y118.589 E29.8442
G1 X81.947 Y119.121 E29.87355
G1 X81.815 Y119.718 E29.90405
G1 X81.81 Y120.235 E29.92985
G1 X81.932 Y120.835 E29.96039
G1 X82.138 Y121.309 E29.98618
G1 X82.462 Y121.771 E30.01433
G1 X82.838 Y122.128 E30.0402
G1 X83.336 Y122.436 E30.06941
G1 X83.846 Y122.62 E30.09646
G1 X84.498 Y122.7 E30.12923
G1 X84.992 Y122.656 E30.15398
G1 X85.576 Y122.477 E30.18445
G0 F3600 X85.752 Y122.88
G1 F3000 E27.18445
G1 F600 Z1.3
G0 F3600 X97.033 Y111.8 Z1.3
;TYPE:WALL-INNER
G1 F600 Z0.3
G1 F3000 E30.18445
G1 X97.655 Y111.235 E30.22637
G1 X98.027 Y110.557 E30.26496
G1 X98.168 Y109.785 E30.30411
G1 X98.042 Y108.973 E30.3451
G1 X97.682 Y108.305 E30.38296
G1 X97.195 Y107.817 E30.41736
G1 X96.567 Y107.481 E30.45289
G1 X96.512 Y107.47 E30.45569
G1 X95.961 Y107.353 E30.48379
G1 X95.894 Y107.338 E30.48722
G1 X94.99 Y107.45 E30.53266
G1 X94.29 Y107.825 E30.57228
G1 X93.747 Y108.398 E30.61167
G1 X93.414 Y109.125 E30.65156
G1 X93.34 Y109.892 E30.69
G1 X93.471 Y110.549 E30.72343
G1 X93.816 Y111.196 E30.76001
G1 X94.309 Y111.685 E30.79465
G1 X94.952 Y112.029 E30.83103
G1 X95.607 Y112.16 E30.86436
G1 X96.363 Y112.085 E30.90226
G1 X97.033 Y111.8 E30.93858
G0 F3600 X96.814 Y111.458
G1 F3000 X97.337 Y110.984 E30.9738
G1 X97.645 Y110.422 E31.00577
G1 X97.762 Y109.78 E31.03833
G1 X97.657 Y109.102 E31.07256
G1 X97.358 Y108.546 E31.10405
G1 X96.954 Y108.142 E31.13256
G1 X96.428 Y107.86 E31.16233
G1 X96.373 Y107.849 E31.16513
G1 X95.944 Y107.758 E31.18701
G1 X95.877 Y107.743 E31.19044
G1 X95.113 Y107.838 E31.22885
G1 X94.536 Y108.147 E31.2615
G1 X94.083 Y108.625 E31.29436
G1 X93.806 Y109.23 E31.32755
G1 X93.744 Y109.872 E31.35973
G1 X93.852 Y110.413 E31.38725
G1 X94.141 Y110.955 E31.4179
G1 X94.549 Y111.36 E31.44658
G1 X95.088 Y111.648 E31.47707
G1 X95.627 Y111.756 E31.50449
G1 X96.263 Y111.693 E31.53638
G1 X96.814 Y111.458 E31.56626
G0 F3600 X96.595 Y111.116
G1 F3000 X97.019 Y110.733 E31.59477
G1 X97.263 Y110.287 E31.62013
G1 X97.356 Y109.775 E31.6461
G1 X97.272 Y109.231 E31.67356
G1 X97.034 Y108.787 E31.69869
G1 X96.713 Y108.467 E31.7213
G1 X96.289 Y108.239 E31.74532
G1 X95.86 Y108.148 E31.7672
G1 X95.236 Y108.226 E31.79857
G1 X94.782 Y108.469 E31.82426
G1 X94.419 Y108.852 E31.85059
G1 X94.198 Y109.335 E31.87709
G1 X94.148 Y109.852 E31.903
G1 X94.233 Y110.277 E31.92463
G1 X94.466 Y110.714 E31.94934
G1 X94.789 Y111.035 E31.97205
G1 X95.224 Y111.267 E31.99665
G1 X95.647 Y111.352 E32.01818
G1 X96.162 Y111.301 E32.04399
G1 X96.595 Y111.116 E32.06749
G0 F3600 X96.377 Y110.774
;TYPE:WALL-OUTER
G1 F3000 X96.701 Y110.482 E32.08925
G1 X96.881 Y110.152 E32.108
G1 X96.95 Y109.77 E32.12737
G1 X96.887 Y109.36 E32.14806
G1 X96.709 Y109.028 E32.16686
G1 X96.472 Y108.791 E32.18358
G1 X96.15 Y108.618 E32.20181
G1 X95.843 Y108.553 E32.21747
G1 X95.359 Y108.614 E32.24181
G1 X95.028 Y108.791 E32.26053
G1 X94.755 Y109.079 E32.28033
G1 X94.59 Y109.44 E32.30013
G1 X94.552 Y109.832 E32.31978
